!!!COM: Palestrina, Giovanni Perluigi da
!!!OPR: Missa Sine nomine (1591)
!!!OMD: Credo
!!!OTL: Et iterum
**kern	**kern	**kern	**kern
*Itenor	*Icalto	*Icant	*Icant
!Tenor	!Altus	!Cantus 2	!Cantus 1
*clefGv2	*clefG2	*clefG2	*clefG2
*k[b-]	*k[b-]	*k[b-]	*k[b-]
*G:dor	*G:dor	*G:dor	*G:dor
*M4/2	*M4/2	*M4/2	*M4/2
=108	=108	=108	=108
0r	0r	1g	1r
.	.	2.b-	1g
.	.	4cc	.
=109	=109	=109	=109
0r	1G	1.dd	2.b-
.	.	.	4cc
.	2.B-	.	[1dd
.	.	2b-	.
.	4c	.	.
=110	=110	=110	=110
0r	2d	2a	2dd]
.	2d	2dd	2b-
.	2f	2.cc	2a
.	2c	.	2g
.	.	4b-	.
=111	=111	=111	=111
1D	2d	2a	2f#
.	2d	2f#	2a
2.G	2.d	2.g	2.b
4G	4d	4g	4b
=112	=112	=112	=112
2C	2e	2g	2cc
1F	1f	1a	1cc
2A	2c	2f	2a
=113	=113	=113	=113
1G	1d	1g	1b-
2F	1f	1cc	4a
.	.	.	4g
2F	.	.	4f
.	.	.	4e
=114	=114	=114	=114
4G	1B-	0r	1d
4A	.	.	.
4B-	.	.	.
4G	.	.	.
2A	2c	.	1r
[2c	2e-	.	.
=115	=115	=115	=115
2c]	2.d	0r	1r
1B-	.	.	.
.	8c	.	.
.	8B-	.	.
.	2c	.	2r
2A	2c	.	2c
=116	=116	=116	=116
1B-	2B-	2r	4d
.	.	.	4e
.	2d	2f	4f
.	.	.	4d
2r	2c	4g	2e
.	.	4a	.
2E-	2B-	4b-	[2g
.	.	4g	.
=117	=117	=117	=117
2F	1A	2a	2g]
2F	.	1cc	2.f
2G	1B-	.	.
.	.	.	4e
2G	.	[2b-	4e
.	.	.	8d
.	.	.	8e
=118	=118	=118	=118
1F	2c	2b-]	2f
.	2.f	2a	2c
[1B-	.	2b-	2.d
.	4e-	.	.
.	4d	[2dd	.
.	4c	.	4e
=119	=119	=119	=119
2B-]	2B-	2dd]	1f
2A	2c	2cc	.
1G	1d	1b-	1r
=120	=120	=120	=120
2F	2d	2a	0r
2G	2d	2b-	.
2G	2G	2b-	.
2F	[2d	2a	.
=121	=121	=121	=121
1E	2d]	1g	1r
.	2c#	.	.
2D	1d	2f	2r
[2B-	.	2f	[2dd
=122	=122	=122	=122
2B-]	0r	2g	2dd]
2F	.	2.a	2cc
1G	.	.	1b-
.	.	4g	.
.	.	2g	.
=123	=123	=123	=123
2D	1d	2f	2a
2G	.	2g	2b-
2B-	2d	2f	2b-
2F	2c	2f	[2a
=124	=124	=124	=124
1G	2.B-	1d	4a]
.	.	.	4g
.	.	.	1g
.	8A	.	.
.	8G	.	.
1D	1A	[1d	.
.	.	.	2f#
=125	=125	=125	=125
2r	2G	2d]	2g
1G	1d	1b-	1g
2c	2e	2cc	2g
=126	=126	=126	=126
2.B-	2.f	2.dd	2.b-
4B-	4f	4dd	4b-
2A	2f	2cc	2cc
[2B-	[2f	[2b-	[2dd
=127	=127	=127	=127
2B-]	2f]	2b-]	2dd]
2F	2f	2a	2cc
2.G	2.d	2.g	2.b-
4G	4d	4g	4b-
=128	=128	=128	=128
2D	2d	2f#	2a
1G	1d	1g	1b-
2F#	2d	2a	2a
=129	=129	=129	=129
2G	2d	2b-	2g
2B-	2d	1dd	2g
1A	1e	.	1a
.	.	2cc#	.
=130	=130	=130	=130
1D	1f	2dd	1a
.	.	2a	.
1r	2d	2b	2f
.	2e	[2cc	2g
=131	=131	=131	=131
0r	2f	2cc]	2a
.	2d	2dd	2b-
.	2f	2cc	2a
.	2g	2b-	2g
=132	=132	=132	=132
0r	2d	2a	2f
.	2G	1g	1b-
.	1d	.	.
.	.	2f#	[2a
=133	=133	=133	=133
0r	1e-	1g	2a]
.	.	.	2.g
.	1d	1a	.
.	.	.	4f#
.	.	.	2f#
=134	=134	=134	=134
2r	1G	1g	2g
1G	.	.	1b-
.	1r	2r	.
2A	.	[2f	2cc
=135	=135	=135	=135
1B-	0r	2f]	1dd
.	.	2g	.
2A	.	1a	2cc
2F	.	.	2cc
=136	=136	=136	=136
2.G	1r	2g	2.b-
.	.	2g	.
4G	.	.	4b-
1D	2r	2.f	1a
.	[2d	.	.
.	.	4f	.
=137	=137	=137	=137
1A	2d]	1e	2r
.	2c	.	2.a
2D	[1f	1a	.
.	.	.	4g
[2d	.	.	4f
.	.	.	4e
=138	=138	=138	=138
2d]	2f]	1a	2d
2c	2e	.	2e
2.B-	2.d	2b-	1f
.	.	2b-	.
4A	4c	.	.
=139	=139	=139	=139
1G	2d	2.b-	2g
.	2e	.	1b-
.	.	4cc	.
1F	1f	2dd	.
.	.	2cc	2a
=140	=140	=140	=140
1F	2r	2r	2r
.	2c	2f	2a
2D	2d	2.f	2a
2d	2f	.	2a
.	.	4e	.
=141	=141	=141	=141
2d	2f	2d	1a
2c	2e	2e	.
2.B-	[1d	1f	1b-
4A	.	.	.
=142	=142	=142	=142
1G	2d]	2g	2.b-
.	2e	1b-	.
.	.	.	4cc
1F	1f	.	2dd
.	.	2a	2cc
=143	=143	=143	=143
2r	2r	2r	2r
1F	1f	1cc	1a
2G	2d	2b-	4g
.	.	.	4f
=144	=144	=144	=144
2A	2c#	2a	2e
2B-	2.d	2g	2d
1A	.	2.a	2e
.	4c#	.	.
.	2c#	.	2e
.	.	4g	.
=145	=145	=145	=145
2.d	0d	4f	2d
.	.	4e	.
.	.	2d	2.dd
4c	.	.	.
4B-	.	2.dd	.
4A	.	.	4cc
[2G	.	.	4b-
.	.	4cc	4a
=146	=146	=146	=146
2G]	2r	2b-	2g
2F#	2.d	2a	2a
2.G	.	2g	[1b-
.	4c	.	.
.	4B-	[2d	.
4A	4A	.	.
=147	=147	=147	=147
2B-	2G	2d]	2b-]
2F	2A	2.dd	2a
[1G	2.B-	.	2.dd
.	.	4cc	.
.	.	4b-	.
.	4c	4a	4cc
=148	=148	=148	=148
2G]	0d	2g	2b-
2F#	.	2a	2a
1G	.	1b-	1g
=149	=149	=149	=149
[0D	[0d	[0a	[0f#
=150	=150	=150	=150
0D]	0d]	0a]	0f#]
*-	*-	*-	*-
!!!CDT: 1525/^1526/-1594/2/2
!!!OCY: Italia
!!!AGN: Mass (Parody)
!!!AST: renaissance, vocal
!!!ASW: Motet (unidentified)
!!!PWK: Masses, Book 1
!!!RNB: Cadence finals: D
!!!YOR: Le Opere Complete, v. 1, p. 182
!!!YOO: Rome, Italy: Fratelli Scalera
!!!END: 1992//
!!!EED: John Miller
!!!YEC: Copyright 2000, John Miller
!!!YEN: United States of America
!!!YEM: Rights to all derivative electronic formats reserved.
!!!YEM: Refer to licensing agreement for further details.
!!!YEM: This file must be accompanied by the licensing agreement.
!!!YEM: A copy of the licensing agreement may be found at http://www.music-cog.ohio-state.edu/HumdrumDatabases/Palestrina/license.txt
!!!EMD: converted to Humdrum by Bret Aarden
